!!!OTL: Der Deserteur (148), S. 327
!!!id: T0317
**kern
*clefG2
*k[f#c#]
*D:
{8a
=1
4a
8a
8a
8b
8a
=2
8a
8g
8e
4d}
=3
{8a
=4
8a
8a
8a
8dd
8cc#
8b
=5
8b
8a
8a
8f#}
8r
=6
{8a
=7
4a
8a
8a
8b
8a
=8
8a
8g
8e
4d}
=9
{8a
=10
8a
8a
8a
8dd
8cc#
8b
=11
8b
8a
8a
8f#}
8r
=12
{8a
=13
8g
8g
8g
8e
8r
8b
=14
8b
8b
8a
8f#
8r
16a
16a
=15
4.a}
4r
==
*-
!!!minrhy: 16
!!!meters: 6/8 ]  ZZ[5
!!!cut: Der Deserteur (148), S. 327
!!!reg: Luxemburg
!!!trd: Singendes Volk, Esch-Alzette 1937, posth.
!!!rhy1: X_  X__X_X_X_X_  X_X_X_X__   (x2)
!!!rhy2: X_  X_X_X_X_X_X_  X_X_X_X_0
!!!key: T0317  16  D 6/8 ]  ZZ[5
!!!mod: HEPTATONIK IONISCH]  AMBITUS[8
!!!kad: 13135
!!!akz: 5551_5+163_5551_5+163_42635_
!!!fot: 'a__b__a__b__c__
!!!for: 'a__b__a__b__c__
!!!fok: '\__^d_\__^d_V__
!! PHRAS[AUFTAKTIG]
!!!fkt: historische, Kriegs- und Soldatenlieder, Liebeslied
!!!bem: StraPen, fff Witry, 10.1.1933
!! THILL, Mathias:
!! PR[33] 2K[0] 2G[13] 3K[10] 3G[6] 4A[2] 4Ü[0] 5A[2] 6K[0] 6G[0]
!! 7K[0] 7G[0] 8A[0] MEHR[0] SI[33] ABS[52] SR[13] SP[19]
!! ST[12] 2k[4] 2g[21] 3k[6] 3g[2] 4d[0] 4ü[0] 5d[2] 6k[0] 6g[0]
!! 7k[0] 7g[0] 8d[0] mehr[0] si[35] dm[-2] sr[25] sp[10]
!! 1F[4] 2F[63] 3F[17] 4F[0] LF[0] 2P[0] 3P[11] 4P[0] TRI[0] DF[5] AB[54]
!! TF[0] U3K[0] U3[0] U4[0] U4Ü[0] U5[2] U6K[0] U6[0] U7K[0] U7[0]
!! N1[9] N2K[0] N2[4] N3K[0] N3[23] N4[11] N4Ü[0] N5[40] N6K[0] N6[11]
!!!n7k: 0] N7[0] O1[0] O2K[0] O2[0] O3K[0] O3[0] HÖ[0
